icons/circle/48/python.svg

<svg xmlns="http://www.w3.org/2000/svg" viewBox="0 0 48 48">
 <defs>
  <linearGradient id="linearGradient3764" x1="1" x2="47" gradientUnits="userSpaceOnUse" gradientTransform="matrix(0,-1,1,0,-1.5e-6,47.999998)">
   <stop style="stop-color:#acacac;stop-opacity:1"/>
   <stop offset="1" style="stop-color:#b6b6b6;stop-opacity:1"/>
  </linearGradient>
 </defs>
 <g>
  <path d="m 36.31 5 c 5.859 4.062 9.688 10.831 9.688 18.5 c 0 12.426 -10.07 22.5 -22.5 22.5 c -7.669 0 -14.438 -3.828 -18.5 -9.688 c 1.037 1.822 2.306 3.499 3.781 4.969 c 4.085 3.712 9.514 5.969 15.469 5.969 c 12.703 0 23 -10.298 23 -23 c 0 -5.954 -2.256 -11.384 -5.969 -15.469 c -1.469 -1.475 -3.147 -2.744 -4.969 -3.781 z m 4.969 3.781 c 3.854 4.113 6.219 9.637 6.219 15.719 c 0 12.703 -10.297 23 -23 23 c -6.081 0 -11.606 -2.364 -15.719 -6.219 c 4.16 4.144 9.883 6.719 16.219 6.719 c 12.703 0 23 -10.298 23 -23 c 0 -6.335 -2.575 -12.06 -6.719 -16.219 z" style="opacity:0.05"/>
  <path d="m 41.28 8.781 c 3.712 4.085 5.969 9.514 5.969 15.469 c 0 12.703 -10.297 23 -23 23 c -5.954 0 -11.384 -2.256 -15.469 -5.969 c 4.113 3.854 9.637 6.219 15.719 6.219 c 12.703 0 23 -10.298 23 -23 c 0 -6.081 -2.364 -11.606 -6.219 -15.719 z" style="opacity:0.1"/>
  <path d="m 31.25 2.375 c 8.615 3.154 14.75 11.417 14.75 21.13 c 0 12.426 -10.07 22.5 -22.5 22.5 c -9.708 0 -17.971 -6.135 -21.12 -14.75 a 23 23 0 0 0 44.875 -7 a 23 23 0 0 0 -16 -21.875 z" style="opacity:0.2"/>
 </g>
 <g>
  <path d="m 24 1 c 12.703 0 23 10.297 23 23 c 0 12.703 -10.297 23 -23 23 -12.703 0 -23 -10.297 -23 -23 0 -12.703 10.297 -23 23 -23 z" style="fill:url(#linearGradient3764);fill-opacity:1"/>
 </g>
 <g>
  <g>
   <g transform="translate(1,1)">
    <g style="opacity:0.1">
     <!-- color: #b6b6b6 -->
    </g>
   </g>
  </g>
 </g>
 <g>
  <path d="m 40.03 7.531 c 3.712 4.084 5.969 9.514 5.969 15.469 0 12.703 -10.297 23 -23 23 c -5.954 0 -11.384 -2.256 -15.469 -5.969 4.178 4.291 10.01 6.969 16.469 6.969 c 12.703 0 23 -10.298 23 -23 0 -6.462 -2.677 -12.291 -6.969 -16.469 z" style="opacity:0.1"/>
 </g>
 <path d="m 25 13 c -4 0 -6 1 -6 2.75 l 0 2.25 6 0 0 1 -8.25 0 c -1.939 0 -3.75 2 -3.75 6 c 0 4 1.811 6 3.75 6 l 1.25 0 0 -3.5 c 0 -1.662 1.338 -3 3 -3 l 7 0 c 1.662 0 3 -1.338 3 -3 l 0 -5.75 c 0 -1.75 -2 -2.75 -6 -2.75 m 6.996 6 0 3.5 c 0 1.662 -1.338 3 -3 3 l -7 0 c -1.662 0 -3 1.338 -3 3 l 0 5.75 c 0 1.75 2 2.75 6 2.75 4 0 6 -1 6 -2.75 l 0 -2.25 -6 0 0 -1 8.25 0 c 1.939 0 3.754 -2 3.754 -6 0 -4 -1.815 -6 -3.754 -6" style="fill:#000;opacity:0.1;fill-opacity:1;stroke:none"/>
 <path d="m 24,12 c -4,0 -6,1 -6,2.75 l 0,2.25 6,0 0,1 -8.25,0 C 13.811,18 12,20 12,24 c 0,4 1.811,6 3.75,6 l 1.25,0 0,-3.5 c 0,-1.662 1.338,-3 3,-3 l 7,0 c 1.662,0 3,-1.338 3,-3 l 0,-5.75 C 30,13 28,12 24,12 Z" style="fill:#4085b0;opacity:1;fill-opacity:1;stroke:none"/>
 <path d="m 23.997,36 c 4,0 6,-1 6,-2.75 l 0,-2.25 -6,0 0,-1 8.25,0 C 34.186,30 36,28 36,24 36,20 34.186,18 32.247,18 l -1.25,0 0,3.5 c 0,1.662 -1.338,3 -3,3 l -7,0 c -1.662,0 -3,1.338 -3,3 l 0,5.75 c 0,1.75 2,2.75 6,2.75 z" style="fill:#f9f747;opacity:1;fill-opacity:1;stroke:none"/>
 <circle cx="21" cy="15" r="1" style="fill:#f9f9f9;opacity:1;fill-opacity:1;stroke:none"/>
 <circle cx="27" cy="33" r="1" style="fill:#f9f9f9;opacity:1;fill-opacity:1;stroke:none"/>
</svg>

<svg xmlns="http://www.w3.org/2000/svg" viewBox="0 0 48 48">
  <defs>
    <linearGradient id="a" x1="1" x2="47" gradientUnits="userSpaceOnUse" gradientTransform="rotate(-90 24 24)">
      <stop stop-color="#acacac"/>
      <stop offset="1" stop-color="#b6b6b6"/>
    </linearGradient>
  </defs>
  <path d="M36.31 5c5.859 4.062 9.688 10.831 9.688 18.5 0 12.426-10.07 22.5-22.5 22.5-7.669 0-14.438-3.828-18.5-9.688a23.24 23.24 0 0 0 3.781 4.969 22.923 22.923 0 0 0 15.469 5.969c12.703 0 23-10.298 23-23a22.92 22.92 0 0 0-5.969-15.469A23.216 23.216 0 0 0 36.31 5zm4.969 3.781A22.911 22.911 0 0 1 47.498 24.5c0 12.703-10.297 23-23 23a22.909 22.909 0 0 1-15.719-6.219C12.939 45.425 18.662 48 24.998 48c12.703 0 23-10.298 23-23 0-6.335-2.575-12.06-6.719-16.219z" opacity=".05"/>
  <path d="M41.28 8.781a22.923 22.923 0 0 1 5.969 15.469c0 12.703-10.297 23-23 23A22.92 22.92 0 0 1 8.78 41.281 22.911 22.911 0 0 0 24.499 47.5c12.703 0 23-10.298 23-23A22.909 22.909 0 0 0 41.28 8.781z" opacity=".1"/>
  <path d="M31.25 2.375C39.865 5.529 46 13.792 46 23.505c0 12.426-10.07 22.5-22.5 22.5-9.708 0-17.971-6.135-21.12-14.75a23 23 0 0 0 44.875-7 23 23 0 0 0-16-21.875z" opacity=".2"/>
  <path d="M24 1c12.703 0 23 10.297 23 23S36.703 47 24 47 1 36.703 1 24 11.297 1 24 1z" fill="url(#a)"/>
  <path d="M40.03 7.531A22.922 22.922 0 0 1 45.999 23c0 12.703-10.297 23-23 23A22.92 22.92 0 0 1 7.53 40.031C11.708 44.322 17.54 47 23.999 47c12.703 0 23-10.298 23-23 0-6.462-2.677-12.291-6.969-16.469z" opacity=".1"/>
  <path d="M25 13c-4 0-6 1-6 2.75V18h6v1h-8.25C14.811 19 13 21 13 25s1.811 6 3.75 6H18v-3.5c0-1.662 1.338-3 3-3h7c1.662 0 3-1.338 3-3v-5.75C31 14 29 13 25 13m6.996 6v3.5c0 1.662-1.338 3-3 3h-7c-1.662 0-3 1.338-3 3v5.75c0 1.75 2 2.75 6 2.75s6-1 6-2.75V32h-6v-1h8.25C35.185 31 37 29 37 25s-1.815-6-3.754-6" opacity=".1"/>
  <path d="M24 12c-4 0-6 1-6 2.75V17h6v1h-8.25C13.811 18 12 20 12 24s1.811 6 3.75 6H17v-3.5c0-1.662 1.338-3 3-3h7c1.662 0 3-1.338 3-3v-5.75C30 13 28 12 24 12z" fill="#4085b0"/>
  <path d="M23.997 36c4 0 6-1 6-2.75V31h-6v-1h8.25C34.186 30 36 28 36 24s-1.814-6-3.753-6h-1.25v3.5c0 1.662-1.338 3-3 3h-7c-1.662 0-3 1.338-3 3v5.75c0 1.75 2 2.75 6 2.75z" fill="#f9f747"/>
  <circle cx="21" cy="15" r="1" fill="#f9f9f9"/>
  <circle cx="27" cy="33" r="1" fill="#f9f9f9"/>
</svg>
